X:1
T:Title
%%score { 1 | 2 }
L:1/8
M:3/4
K:D
V:1 treble nm="Grand Piano"
V:2 bass 
V:1
 z2 z[Q:1/4=94] [FA] [FA][DF] | [Fd]3 F A>G | G4 G2 | [Ec]3 [CGB] [CGA]>[CGB] |[M:3/8] [DFA]3 | %5
 [A,EG][A,DF][A,CA] |[M:3/4] [Dd]3 [Ac] [Ae][Ad] | [GB]4 [^GB]2 | A3 d dc |[M:3/8] [Fd]3 | %10
 [Fd][Ge]>[Fd] |[M:3/4] [Gc]3 [EG] [Gc]>[CGB] | [DFA]4 [EF]2 | [DFB]3 [DF] [B,D^G][^G,DE] | %14
[M:3/8] [A,CA]3 | DFA | %16
[M:3/4] f3 e d[Ac][Q:1/4=93][Q:1/4=91][Q:1/4=90][Q:1/4=88][Q:1/4=87][Q:1/4=86][Q:1/4=84] | %17
 B4[Q:1/4=94] d2[Q:1/4=83][Q:1/4=82][Q:1/4=80][Q:1/4=79][Q:1/4=77][Q:1/4=76][Q:1/4=75][Q:1/4=73][Q:1/4=72] | %18
 d3 A ce |[M:3/8] [Fd]3 |] %20
V:2
 z2 z [D,D] [D,D][D,A,] | [D,A,]3 [D,A,D] [E,A,C]>[E,A,C] | [E,A,C]4 [E,A,C]2 | %3
 [A,,A,]3 A,, A,,>A,, |[M:3/8] D,3 | C,D,E, |[M:3/4] [F,A,]3 [F,A,] [E,C][F,D] | [G,D]4 [E,D]2 | %8
 [F,D]3[K:treble] [G,B,G] [A,F][K:bass][A,E] |[M:3/8] [D,A,]3 | [D,A,][C,A,]>[D,A,] | %11
[M:3/4] [E,A,]3 [E,A,] [A,,A,]>A,, | D,4 C,2 | B,,3 B,, E,E, |[M:3/8] A,,3 | D,F,A, | %16
[M:3/4][K:treble] [DAd]3 [A,CG] [B,DF][F,D] | [G,DG]4 [^G,B,=F]2 | %18
 [A,F]3 [A,DF] [A,EG][K:bass][A,,A,CG] |[M:3/8] [D,A,D]3 |] %20

